X:1
T:Kiss my Wife, and welcome [1]
M:12/8
L:1/8
R:Jig
O:"Irish"
B:John Macpherson Mulhollan - Selection of Irish and Scots Tunes (Edinburgh, 1804, p. 30)
Z:AK/Fiddler's Companion
K:Edor
EFE BAG FDF AGF|EFE BAF E3 B3|
EFE BAG FDF AGF|(Bc/d/)B AGF E3B3:|
|:B2c d2e d2B AFD|B2c d2e fdB fdB|
B2c d2e dcB AFA|(Bc/d/B) AGF E3B3:|
|:E2B E2B E2B BAB|E2B E2B E2B AGF|
E2B E2B E2B BAB|dcB AGF E3 B3:|]

